X:319
T:Within a Mile of Dublin (reel) 
B:CRE2.179 (I bhFoisceacht MÃÂÃÂÃÂÃÂ­le do Bhaile ÃÂÃÂÃÂÃÂtha Cliath)
F:file ID: cre.2/319within
R:reel
M:C
Q:180
K:G
"D modal"
FG|ADD2 FEFG|ADD2 cABG|ADD2 FEFG|AdcA G2BG|
AD~D2 FEFG|AD~D2 c2BG|AD~D2 FEFG|AdcA G2||
FG|Add^c AGFG|Adde fdec|Addc AGFG|ABA2 G2FG|
Add^c AGFG|Adde f3g|af (3gfe fdec|dcAF G4|]


%%%

